X: 34287
T: Repeal The Union
R: jig
M: 6/8
K: Gmajor
GAG GBd|edB deg|bge edB|dBG AGE|
GAG GBd|edB deg|bge deg|agf g3:|
c'2 b a2 b|gag ege|d2 e g2 e|dBG AGE|
GAG GBd|edB deg|bge deg|agf g3:|
GAG B2 c|ded B2 d|cBc A2 c|BAB G2 D|
GAG B2 c|ded B2 d|cBc A2 F|GAG G3:|

